app/dist/common/images/gores-ix.svg

<svg height="18" viewBox="0 0 18 18" width="18" xmlns="http://www.w3.org/2000/svg"><path d="m0 0h18v18h-18z" fill="#f0f3fa"/><path d="m5 6h-3v1h1v5h1v-5h1zm4 5.4c-.42.38-.94.6-1.5.6-1.38 0-2.5-1.34-2.5-3s1.12-3 2.5-3c1.09 0 2.01.83 2.36 2h-1.06c-.26-.6-.74-1-1.3-1-.83 0-1.5.9-1.5 2s.67 2 1.5 2c.56 0 1.04-.4 1.3-1h-.8v-1h2v3h-1zm6 0c-.42.38-.94.6-1.5.6-1.38 0-2.5-1.34-2.5-3s1.12-3 2.5-3c1.09 0 2.01.83 2.36 2h-1.06c-.26-.6-.74-1-1.3-1-.83 0-1.5.9-1.5 2s.67 2 1.5 2c.56 0 1.04-.4 1.3-1h-.8v-1h2v3h-1z" fill="#103842"/></svg>

<!-- by TradingView --><svg width="18" height="18" viewBox="0 0 18 18" xmlns="http://www.w3.org/2000/svg"><path fill="#F0F3FA" d="M0 0h18v18H0z"/><path d="M5 6H2v1h1v5h1V7h1V6ZM9 11.4c-.42.38-.94.6-1.5.6C6.12 12 5 10.66 5 9s1.12-3 2.5-3c1.09 0 2.01.83 2.36 2H8.8c-.26-.6-.74-1-1.3-1C6.67 7 6 7.9 6 9s.67 2 1.5 2c.56 0 1.04-.4 1.3-1H8V9h2v3H9v-.6ZM15 11.4c-.42.38-.94.6-1.5.6-1.38 0-2.5-1.34-2.5-3s1.12-3 2.5-3c1.09 0 2.01.83 2.36 2H14.8c-.26-.6-.74-1-1.3-1-.83 0-1.5.9-1.5 2s.67 2 1.5 2c.56 0 1.04-.4 1.3-1H14V9h2v3h-1v-.6Z" fill="#103842"/></svg>
